X: 12
T: The Easy Winners
C: Scott Joplin
%%abc-version 2.0
%%abcx-abcm2ps-target-version 5.9.1 (29 Sep 2008)
%%abc-creator hum2abc beta
%%abcx-conversion-date 2021/07/20 09:00:57
%%abc-copyright 2021 Craig Stuart Sapp
%%abc-edited-by Craig Stuart Sapp
%%abc-edited-by Craig Stuart Sapp
%%abcx-initial-encoding-date 2004/11/28
%%humdrum-veritas 3771570972
%%humdrum-veritas-data 931343337
%%removed 0's from note length
%%linebreak <none>
%%barnumbers 0
L: 1/8
M: 2/4
N: Derived from easywinners.krn
Q: "Introduction. Not fast." 1/4=72
%%staves {1 2}
V: 1 clef=treble
V: 2 clef=bass
K: Ab
[V:1] Ec- c/B/A/G/ | 
[V:2] E,C- C/B,/A,/G,/ | 
[V:1] F/ED/ CB,/A,/ | 
[V:2] F,/E,D,/ C,B,,/A,,/ | 
[V:1] G,/A,/B,/C/ D/E/F/G/ | 
[V:2] E,,2E,/D,/C,/B,,/ | 
[V:1] A zz2 ]|:  
[V:2] A,,[CA,E,] E,,[CA,E,] ]|:  
[V:1] [cA][c2A2][ec] | 
[V:2] A,,[CA,E,] E,,[CA,E,] | 
[V:1] [f/=B/][ec][f/B/] [e/c/][f/B/][ec] | 
[V:2] A,,[CA,E,] E,,[CA,E,] | 
[V:1] [b/=e/][af][b/e/] [a/f/][b/e/][a/f/][_e/c/]- | 
[V:2] D,,[DA,F,] D,,[DA,F,] | 
[V:1] z E/F/ G/A/B/=B/ & [e4c4] | 
[V:2] A,,[CA,E,] E,,[CA,E,] | 
[V:1] [cA][c2A2][ec] | 
[V:2] A,,[CA,E,] E,,[CA,E,] | 
[V:1] [f/=B/][ec][f/B/] [e/c/][e/c/][ec] | 
[V:2] A,,[CA,E,] =A,,[E=A,^F,] | 
[V:1] e/Be/ =d/e/f & x< G A A | 
[V:2] B,,[EB,G,] B,,[=DB,] | 
[V:1] [e2G2]-[e/G/]E/G/_d/ | 
[V:2] [EE,][_D_D,] [CC,][B,B,,] | 
[V:1] [cA][c2A2][ec] | 
[V:2] [A,A,,][CA,E,] E,,[CA,E,] | 
[V:1] [f/=B/][ec][f/B/] [e/c/][f/B/][ec] | 
[V:2] A,,[CA,E,] E,,[CA,E,] | 
[V:1] [b/=e/][af][b/e/] [a/f/][a/f/][b/g/f/][c'/g/=e/]- | 
[V:2] D,,[DA,F,] [DD,][DD,] | 
[V:1] [c'2-g2=e2]c'g/a/ & z/ c/=e/g/ c' z | 
[V:2] [CC,][G,G,,] [C,C,,] z | 
[V:1] [b/=e/][af][b/e/] [a/f/][b/e/][a/f/][_e/c/]- | 
[V:2] [D,D,,][DA,F,] [D,D,,][DA,F,] | 
[V:1] [e/c/][f/d/][e/c/][d/B/] [c/A/][ec][e/c/] | 
[V:2] [A,A,,][CA,E,] [A,A,,][CA,E,] | 
[V:1] [e/=A/][dB][e/A/] [d/B/][c/G/D/][BGD] |[1 
[V:2] [E,E,,][DG,E,] [E,E,,][E,E,,] | 
[V:1] [A2C2]-[AC] z :|][2 
[V:2] E,2-E, z & A,,E,, F,,G,, :|]  
[V:1] [A2C2][aecA]E/=E/ ]|: 
[V:2] [A,A,,][E,E,,] [A,,A,,,] z ]|:  
[V:1] F/^F/G/[B/G/]- [B/G/]e/d/B/ | 
[V:2] [E,E,,][DB,E,] [G,G,,][DG,E,] | 
[V:1] F/^F/G/[c/G/]- [c/G/]B/=F/G/ | 
[V:2] [B,B,,][DB,G,E,] [B,B,,][=B,=B,,] | 
[V:1] A/E/F/G/ A/=A/B/=B/ | 
[V:2] [CC,][CA,E,] [E,E,,][CA,E,] | 
[V:1] c/=B/c/[f/c/]- [f/c/]e/_B/c/ | 
[V:2] [A,A,,][CA,E,] [E,E,,][CA,E,] | 
[V:1] d/bc/ d/bc/ | 
[V:2] [B,B,,][DG,E,] [E,E,,][DG,E,] | 
[V:1] d/ba/ g/f/e/d/ | 
[V:2] [B,B,,][DG,E,] [E,E,,][G,G,,] | 
[V:1] c/a=B/ c/aB/ | 
[V:2] [A,A,,][CA,E,] [E,E,,][CA,E,] | 
[V:1] c/af/ e/c/B/A/ | 
[V:2] [A,A,,][CA,E,] [E,E,,][CA,E,] | 
[V:1] G/^G/=A/[f/A/]- [f/A/]e/c/A/ | 
[V:2] [F,F,,][E=A,F,] [A,=A,,][EA,F,] | 
[V:1] G/^G/=A/[f/A/]- [f/A/][e/c/][f/A/][e/c/] | 
[V:2] [CC,][E=A,F,] [F,F,,][EA,F,] | 
[V:1] [d/B/][c/=A/][d/B/]F/- F/A/B/d/ | 
[V:2] B,,[DB,F,] D,[DB,F,] | 
[V:1] f/c/d/B/- B/F/D/B,/ | 
[V:2] B,,[B,F,][B,2F,2D,2] | 
[V:1] =B,/=D/F/A/ =B/BB/- | 
[V:2] =D,/F,/A,/=B,/ =D/DD/- | 
[V:1] B/=d/f/a/ =b z | 
[V:2] D/F/A/=B/ =d z | 
[V:1] c'/a/e/c/- c/A/C/E/ |[1 
[V:2] [eA] zz2 | 
[V:1] [B/G/E/D/][BGED][A/E/C/]- [AEC]E/=E/ :|][2 
[V:2] [E,E,,][E,E,,] [A,A,,] z :|]  
[V:1] [B/G/E/D/][BGED][A/E/C/]- [AEC]E | 
[V:2] [E,E,,][E,E,,] [A,A,,] z | 
[V:1] [cA][c2A2][ec] | 
[V:2] A,,[CA,E,] E,,[CA,E,] | 
[V:1] [f/=B/][ec][f/B/] [e/c/][f/B/][ec] | 
[V:2] A,,[CA,E,] E,,[CA,E,] | 
[V:1] [b/=e/][af][b/e/] [a/f/][b/e/][a/f/][_e/c/]- | 
[V:2] D,,[DA,F,] D,,[DA,F,] | 
[V:1] z E/F/ G/A/B/=B/ & [e4c4] | 
[V:2] A,,[CA,E,] E,,[CA,E,] | 
[V:1] [cA][c2A2][ec] | 
[V:2] A,,[CA,E,] E,,[CA,E,] | 
[V:1] [f/=B/][ec][f/B/] [e/c/][e/c/][ec] | 
[V:2] A,,[CA,E,] =A,,[E=A,^F,] | 
[V:1] e/Be/ =d/e/f & x< G AA | 
[V:2] B,,[EB,G,] B,,[=DB,] | 
[V:1] [e2G2]-[e/G/]E/G/_d/ | 
[V:2] [EE,][_D_D,] [CC,][B,B,,] | 
[V:1] [cA][c2A2][ec] | 
[V:2] [A,A,,][CA,E,] E,,[CA,E,] | 
[V:1] [f/=B/][ec][f/B/] [e/c/][f/B/][ec] | 
[V:2] A,,[CA,E,] E,,[CA,E,] | 
[V:1] [b/e/][af][b/=e/] [a/f/][a/f/][b/g/f/][c'/g/e/]- | 
[V:2] D,,[DA,F,] [DD,][DD,] | 
[V:1] [c'2-g2e2]c'g/a/ & z/ c/=e/g/ c' z | 
[V:2] [CC,][G,G,,] [C,C,,] z | 
[V:1] [b/=e/][af][b/e/] [a/f/][b/e/][a/f/][_e/c/]- | 
[V:2] [D,D,,][DA,F,] [D,D,,][DA,F,] | 
[V:1] [e/c/][f/d/][e/c/][d/B/] [c/A/][ec][e/c/] | 
[V:2] [A,A,,][CA,E,] [A,A,,][CA,E,] | 
[V:1] [e/=A/][dB][e/A/] [d/B/][c/G/D/][BGD] | 
[V:2] [E,E,,][DG,E,] [E,E,,][E,E,,] | 
[V:1] [A2C2][aecA] z ||  
[V:2] [A,A,,][E,E,,] [A,,A,,,] z ||  
[V:1]  [K:Db] dd- d/A/d/e/ | 
[V:2]  [K:Db] DD- D/A,/D/E/ | 
[V:1] ff- f/A/d/f/ | 
[V:2] FF- F/A,/D/F/ | 
[V:1] [a/g/c/][c'ge][a/g/-c/-] [b/g/c/][a/g/c/][cAG] | 
[V:2] A2[A,A,,][A,A,,] | 
[V:1] [dAF] z z A/=A/ ]|:  
[V:2] [D,D,,][D,D,,] [E,E,,][F,F,,] ]|:  
[V:1] B/ge/ =A/ge/ | 
[V:2] [G,G,,][GDB,] [EE,][=E=E,] | 
[V:1] _A/d/f/b/- b/a/f/d/ | 
[V:2] [FF,][FDA,] [DD,][FDA,] | 
[V:1] c/a/e/c/ B/cA/ | 
[V:2] [A,A,,][GCA,] [EE,][=E=E,] | 
[V:1] d/d/f/a/ d'/b/a/f/ | 
[V:2] [FF,][DD,] [A,A,,][F,F,,] | 
[V:1] B/ge/ =A/ge/ | 
[V:2] [G,G,,][GDB,] [EE,][=E=E,] | 
[V:1] _A/d/f/b/- b/a/f/d/ | 
[V:2] [FF,][FDA,] [DD,][FDA,] | 
[V:1] e/f/e/d/ c/dB/ | 
[V:2] [B,B,,][=GED] [E,E,,][GED] | 
[V:1] A[f/=B/][e/c/] !accent![ac][_cA] | 
[V:2] [ECA,]=D,/E,/ !accent!A,,[DF,] | 
[V:1] B/ge/ =A/ge/ & B2=A2 | 
[V:2] [G,G,,][GDB,] [EE,][=E=E,] | 
[V:1] z/ _A/d/f/ b/a/f/d/ | 
[V:2] [FF,][FDA,] [DD,][FDA,] | 
[V:1] c/a/e/c/ B/cA/ | 
[V:2] [A,A,,][GCA,] [EE,][=E=E,] | 
[V:1] x2d'/b/a/f/ & z/ d/f/a/ f_c | 
[V:2] [FF,][DD,] [A,A,,][F,F,,] | 
[V:1] B/ge/ =A/ge/ & B2=A2 | 
[V:2] [G,G,,][B,B,,] [EE,][GG,] | 
[V:1] z/ _A/d/f/ b/a/f/A/ |[1 
[V:2] [FF,][DD,] [A,A,,][DD,] | 
[V:1] =G<[dB] _G/[ec]d/- & =G2_G3/F/- | 
[V:2] [B,B,,][E,E,,][A,,2A,,,2] | 
[V:1] [dF]f/d/ e/f/A/=A/ :|][2 
[V:2] [D,D,,][DD,] [A,A,,][F,F,,] :|]  
[V:1] =G<[dB] G/[ec]d/- & =G2G3/F/- | 
[V:2] [B,B,,][E,E,,][A,,2A,,,2] | 
[V:1] [d2F2]-[d/F/][a/A/][b/B/][=b/=B/] ]|: 
[V:2] [D,D,,]A,, D,, z ]|:  
[V:1] [c'gc][a/A/][b/g/B/]-[b2g2B2] | 
[V:2] [EE,][GCA,] [A,A,,][GCA,] | 
[V:1] [c'gc][a/A/][b/g/B/]- [b/g/B/][a/A/][b/B/][c'/c/] | 
[V:2] [E,E,,][GCA,] [E,/E,,/][A,/A,,/][=G,/=G,,/][_G,/_G,,/] | 
[V:1] [d'fd][a/f/A/][b/f/B/]-[b2f2B2] | 
[V:2] [F,F,,][FDA,] [DD,][FDA,] | 
[V:1] [d'fd][a/f/A/][b/f/B/]-[b2f2B2] | 
[V:2] [F,F,,][FDA,] [DD,][=D=D,] | 
[V:1] z b/[a/g/c/]-[a2g2c2] | 
[V:2] [EE,][GCA,] [A,A,,][GCA,] | 
[V:1] z b/[a/g/c/]-[a2g2c2] | 
[V:2] [CC,][GCA,] [A,A,,][GCA,] | 
[V:1] z b/[a/f/d/]-[a2f2d2] | 
[V:2] [DD,][FDA,] [A,A,,][FDA,] | 
[V:1] z b/[a/f/d/]- [a/f/d/][a/A/][b/B/][=b/=B/] | 
[V:2] [DD,][FDA,] [FF,][_F_F,] | 
[V:1] [c'gc][a/A/][b/g/B/]-[b2g2B2] | 
[V:2] [EE,][GCA,] [A,A,,][GCA,] | 
[V:1] [c'gc][a/A/][b/g/B/]- [b/g/B/][a/A/][b/B/][c'/c/] | 
[V:2] [E,E,,][GCA,] [E,/E,,/][A,/A,,/][=G,/=G,,/][_G,/_G,,/] | 
[V:1] [d'fd][a/f/A/][b/f/B/]-[b2f2B2] | 
[V:2] [F,F,,][FDA,] [DD,][FDA,] | 
[V:1] x2d'/b/a/f/ & z/ d/f/a/ f_c | 
[V:2] [FF,][DD,] [A,A,,][F,F,,] | 
[V:1] B/ge/ =A/ge/ & B2=A2 | 
[V:2] [G,G,,][B,B,,] [EE,][GG,] | 
[V:1] z/ _A/d/f/ b/a/f/A/ |[1 
[V:2] [FF,][DD,] [A,A,,][DD,] | 
[V:1] =G<[dB] _G/[ec]d/- & =G2_G3/F/- | 
[V:2] [B,B,,][E,E,,][A,,2A,,,2] | 
[V:1] [d2F2]-[d/F/][a/A/][b/B/][=b/=B/] :|][2 
[V:2] [D,D,,][A,A,,] [FF,][_F_F,] :|]  
[V:1] =G<[dB] _G/[ec]d/- & =G2_G3/F/- | 
[V:2] [B,B,,][E,E,,][A,,2A,,,2] | 
[V:1] [d2F2][d'afd] z |]  
[V:2] [D,D,,]A,, D,, z |]  


